svg/bank_circle.svg

<svg xmlns="http://www.w3.org/2000/svg" viewBox="0 0 24 24"><path d="M12 2C6.5 2 2 6.5 2 12s4.5 10 10 10 10-4.5 10-10S17.5 2 12 2m5 15H7v-2h10zm-9-3v-3h2v3zm3 0v-3h2v3zm3 0v-3h2v3zm3-4H7V8.5L12 6l5 2.5z"/></svg>

<svg xmlns="http://www.w3.org/2000/svg" id="mdi-bank-circle" viewBox="0 0 24 24"><path d="M12 2C6.5 2 2 6.5 2 12S6.5 22 12 22 22 17.5 22 12 17.5 2 12 2M17 17H7V15H17V17M8 14V11H10V14H8M11 14V11H13V14H11M14 14V11H16V14H14M17 10H7V8.5L12 6L17 8.5V10Z" /></svg>
